packages/core/src/svgs/cbx.svg

<svg width="24" height="24" viewBox="0 0 24 24" fill="none" xmlns="http://www.w3.org/2000/svg">
<g clip-path="url(#clip0_31_8049)">
<path d="M0 0H24V24H0V0Z" fill="#15B555"/>
<path d="M7.66707 17.5712L7.28564 17.2584C7.46993 17.0098 8.26279 16.5084 8.63564 16.2855C9.26993 16.3712 10.3499 16.5512 9.59993 16.6155C8.84564 16.6841 7.99707 17.2798 7.66707 17.5712ZM16.6799 17.9998L17.1428 17.6141C16.9456 17.2069 15.9642 16.2984 15.6428 16.0712C15.0899 16.1569 14.1299 16.5812 14.7856 16.6498C15.4371 16.7184 16.3928 17.6998 16.6799 17.9998ZM9.44564 10.4527C9.47318 10.3889 9.52388 10.3379 9.58752 10.3101C9.65115 10.2823 9.72298 10.2796 9.7885 10.3027L10.9671 10.7227C11.0871 10.7655 11.1599 10.8812 11.1385 11.0012C11.1281 11.0597 11.0984 11.1131 11.0541 11.1527C11.0098 11.1923 10.9535 11.2159 10.8942 11.2198C10.7656 11.2284 10.5556 11.2755 10.3371 11.3441C10.1185 11.4084 9.92564 11.4855 9.83564 11.5369C9.7737 11.5709 9.70118 11.58 9.63276 11.5625C9.56433 11.545 9.50511 11.5022 9.46707 11.4427C9.44959 11.4136 9.43814 11.3812 9.43342 11.3476C9.4287 11.314 9.43081 11.2797 9.43961 11.2469C9.44841 11.2141 9.46372 11.1834 9.48464 11.1567C9.50556 11.1299 9.53165 11.1077 9.56136 11.0912C9.66422 11.0355 9.8185 10.9712 9.97707 10.9198L9.60422 10.7827C9.572 10.7716 9.5423 10.7543 9.51684 10.7316C9.49139 10.709 9.47068 10.6815 9.45593 10.6508C9.44117 10.6201 9.43267 10.5868 9.4309 10.5528C9.42914 10.5188 9.43415 10.4847 9.44564 10.4527Z" fill="#F0F3FA"/>
<path fill-rule="evenodd" clip-rule="evenodd" d="M15.4286 6.74557C15.4286 6.22272 15.2444 5.747 15.1501 5.57129C15.7801 5.72986 16.7144 6.407 16.7144 7.52557C16.7144 8.64843 15.7544 9.32557 15.3001 9.42843C14.8501 9.53557 14.8501 10.0541 14.8501 10.2384C14.8501 10.4184 15.1501 11.8027 15.4286 12.0384C15.7213 12.1926 15.9601 12.4322 16.1132 12.7255C16.2663 13.0187 16.3265 13.3516 16.2858 13.6799V15.0599C16.2858 16.4999 13.8172 17.1427 12.0001 17.1427C10.1829 17.1427 8.94864 16.6756 8.29293 16.2341C7.77007 15.8784 7.72293 15.3041 7.71436 15.0599V13.547C7.71436 12.317 8.64007 12.017 9.15007 11.9999H11.3444C11.9315 11.9999 12.0001 11.6141 12.0001 11.4513V9.87415C12.0001 8.75129 12.8829 8.30986 13.9158 8.177C14.9486 8.04843 15.4286 7.397 15.4286 6.74557ZM9.34293 12.857H14.6486C15.2315 12.857 15.4458 13.4356 15.4286 13.6884V15.0599C15.4286 15.9427 13.1272 16.2427 11.9744 16.2856C10.8429 16.2427 8.5715 15.9427 8.5715 15.0599V13.6884C8.55436 13.4356 8.76436 12.857 9.34293 12.857ZM13.5001 11.5713C13.8558 11.5713 14.1429 11.1856 14.1429 10.7141C14.1429 10.2427 13.8558 9.857 13.5001 9.857C13.1444 9.857 12.8572 10.2427 12.8572 10.7141C12.8572 11.1856 13.1444 11.5713 13.5001 11.5713Z" fill="#F0F3FA"/>
<path d="M10.2857 13.2856H9.42857C9.19188 13.2856 9 13.4775 9 13.7142V14.5714C9 14.8081 9.19188 14.9999 9.42857 14.9999H10.2857C10.5224 14.9999 10.7143 14.8081 10.7143 14.5714V13.7142C10.7143 13.4775 10.5224 13.2856 10.2857 13.2856Z" fill="#F0F3FA"/>
<path d="M14.5714 13.2856H13.7142C13.4775 13.2856 13.2856 13.4775 13.2856 13.7142V14.5714C13.2856 14.8081 13.4775 14.9999 13.7142 14.9999H14.5714C14.8081 14.9999 14.9999 14.8081 14.9999 14.5714V13.7142C14.9999 13.4775 14.8081 13.2856 14.5714 13.2856Z" fill="#F0F3FA"/>
<path d="M8.57151 10.0286C8.2816 9.89257 7.96051 9.83669 7.64168 9.86684C7.32284 9.89699 7.01792 10.0121 6.75865 10.2001C6.51478 10.3885 6.31894 10.6319 6.1871 10.9105C6.05527 11.1891 5.99118 11.4949 6.00008 11.8029C6.32151 11.9701 7.13151 12.2058 7.81294 11.6701C8.05915 11.4741 8.25601 11.2231 8.38774 10.9373C8.51947 10.6515 8.58241 10.3389 8.57151 10.0244V10.0286Z" fill="#F0F3FA"/>
<path d="M7.27286 17.5969C7.14857 17.5541 6.84429 17.5369 6.62571 17.7684C6.54709 17.8512 6.48906 17.9514 6.45631 18.0609C6.42355 18.1703 6.41698 18.2859 6.43714 18.3984C6.56571 18.4412 6.87 18.4755 7.08857 18.2398C7.31143 18.0041 7.29429 17.7341 7.27286 17.5969ZM7.28571 16.8855C7.17362 16.7983 7.04057 16.7421 6.89991 16.7226C6.75925 16.703 6.61591 16.7208 6.48429 16.7741C6.36152 16.8282 6.25349 16.9108 6.16923 17.0152C6.08498 17.1196 6.02695 17.2427 6 17.3741C6.12 17.4812 6.45 17.6655 6.79714 17.5112C6.92258 17.4535 7.03239 17.3665 7.11738 17.2577C7.20237 17.1488 7.26009 17.0212 7.28571 16.8855ZM7.94143 17.9998C7.78286 18.0298 7.43143 18.1884 7.32429 18.5441C7.21286 18.9041 7.38 19.1698 7.47429 19.2855C7.63714 19.2555 8.00143 19.1184 8.10857 18.7541C8.14613 18.6244 8.15051 18.4874 8.1213 18.3556C8.0921 18.2238 8.03025 18.1015 7.94143 17.9998Z" fill="#F8D45C"/>
<path d="M8.56275 17.5712C8.41275 17.6441 8.12561 17.8884 8.14275 18.2398C8.1599 18.5912 8.42561 18.7798 8.56275 18.8569C8.71275 18.7841 9.02132 18.5569 8.9999 18.1969C8.97418 17.8412 8.70847 17.6526 8.56275 17.5712ZM7.71418 16.3069C7.64561 16.1569 7.41418 15.8569 7.05847 15.8569C6.70704 15.8569 6.5099 16.1141 6.42847 16.2426C6.49704 16.4012 6.71561 16.7226 7.07132 16.7141C7.42704 16.7055 7.62847 16.4526 7.71418 16.3069Z" fill="#F8D45C"/>
<path d="M15.4285 10.0284C15.7499 9.86123 16.5599 9.68123 17.2413 10.1998C17.4852 10.3882 17.681 10.6317 17.8129 10.9102C17.9447 11.1888 18.0088 11.4946 17.9999 11.8027C17.6785 11.9698 16.8685 12.2055 16.187 11.6698C15.9408 11.4738 15.744 11.2229 15.6122 10.9371C15.4805 10.6513 15.4176 10.3386 15.4285 10.0241V10.0284Z" fill="#F0F3FA"/>
<path d="M11.0015 6.17592L12 5.14307L12.9986 6.17592L14.1429 5.57164C14.059 6.07809 13.9632 6.58251 13.8557 7.0845C13.59 7.60735 12.5143 7.72307 12 7.7145C11.49 7.72307 10.41 7.60735 10.1443 7.0845C10.0843 6.84021 9.93003 6.01307 9.85718 5.57164L11.0015 6.17592Z" fill="#F8D45C"/>
<path d="M7.28564 7.47415C7.28743 7.06069 7.41454 6.6575 7.65021 6.31777C7.88587 5.97805 8.219 5.71777 8.60564 5.57129C8.53707 5.69986 8.39136 6.10272 8.39136 6.677C8.38845 6.95406 8.47601 7.22449 8.64077 7.44726C8.80552 7.67002 9.03846 7.83294 9.30422 7.91129C9.71136 8.03986 9.85707 8.117 9.85707 8.32272C9.85707 8.96557 9.20993 9.42843 9.01707 9.42843C8.82422 9.42843 7.28564 8.91415 7.28564 7.47415Z" fill="#F0F3FA"/>
</g>
<defs>
<clipPath id="clip0_31_8049">
<rect width="24" height="24" fill="white"/>
</clipPath>
</defs>
</svg>

<svg xmlns="http://www.w3.org/2000/svg" width="24" height="24" fill="none" viewBox="0 0 24 24"><g clip-path="url(#a)"><path fill="#15B555" d="M0 0h24v24H0z"/><path fill="#F0F3FA" d="m7.667 17.571-.381-.313c.184-.248.977-.75 1.35-.973.634.086 1.714.266.964.33-.754.07-1.603.665-1.933.956M16.68 18l.463-.386c-.197-.407-1.179-1.316-1.5-1.543-.553.086-1.513.51-.857.579.651.068 1.607 1.05 1.894 1.35m-7.234-7.547a.274.274 0 0 1 .343-.15l1.178.42a.252.252 0 0 1 .087.43.27.27 0 0 1-.16.067 2.8 2.8 0 0 0-.557.124 2.7 2.7 0 0 0-.501.193.28.28 0 0 1-.369-.094.253.253 0 0 1 .094-.352 2.7 2.7 0 0 1 .416-.171l-.373-.137a.257.257 0 0 1-.158-.33"/><path fill="#F0F3FA" fill-rule="evenodd" d="M15.429 6.746a2.75 2.75 0 0 0-.279-1.175c.63.159 1.564.836 1.564 1.955 0 1.122-.96 1.8-1.414 1.902-.45.108-.45.626-.45.81 0 .18.3 1.565.579 1.8a1.63 1.63 0 0 1 .857 1.642v1.38c0 1.44-2.469 2.083-4.286 2.083s-3.051-.467-3.707-.909c-.523-.356-.57-.93-.579-1.174v-1.513c0-1.23.926-1.53 1.436-1.547h2.194c.588 0 .656-.386.656-.549V9.874c0-1.123.883-1.564 1.916-1.697 1.033-.129 1.513-.78 1.513-1.431m-6.086 6.111h5.306c.583 0 .797.579.78.831v1.372c0 .883-2.302 1.183-3.455 1.226-1.131-.043-3.402-.343-3.402-1.226v-1.372c-.018-.252.192-.831.77-.831m4.157-1.286c.356 0 .643-.385.643-.857 0-.471-.287-.857-.643-.857s-.643.386-.643.857c0 .472.287.857.643.857" clip-rule="evenodd"/><path fill="#F0F3FA" d="M10.286 13.286h-.857a.43.43 0 0 0-.429.428v.857c0 .237.192.429.429.429h.857a.43.43 0 0 0 .428-.429v-.857a.43.43 0 0 0-.428-.428M14.571 13.286h-.857a.43.43 0 0 0-.428.428v.857c0 .237.191.429.428.429h.857A.43.43 0 0 0 15 14.57v-.857a.43.43 0 0 0-.429-.428M8.572 10.029a1.79 1.79 0 0 0-1.813.171A1.95 1.95 0 0 0 6 11.803c.322.167 1.132.403 1.813-.133a2.01 2.01 0 0 0 .759-1.646z"/><path fill="#F8D45C" d="M7.273 17.597a.65.65 0 0 0-.647.171.73.73 0 0 0-.189.63c.129.043.433.078.652-.158a.74.74 0 0 0 .184-.643m.013-.712a.81.81 0 0 0-.802-.11.84.84 0 0 0-.484.6c.12.106.45.29.797.136a.87.87 0 0 0 .489-.625M7.94 18c-.158.03-.51.188-.617.544a.78.78 0 0 0 .15.741c.163-.03.527-.167.635-.53A.8.8 0 0 0 7.94 18"/><path fill="#F8D45C" d="M8.563 17.571c-.15.073-.437.317-.42.669.017.351.283.54.42.617.15-.073.458-.3.437-.66-.026-.356-.292-.544-.437-.626m-.849-1.264c-.068-.15-.3-.45-.656-.45-.351 0-.548.257-.63.386.069.158.288.48.643.471.356-.008.557-.261.643-.407"/><path fill="#F0F3FA" d="M15.429 10.028c.32-.167 1.13-.347 1.812.172A1.96 1.96 0 0 1 18 11.803c-.322.167-1.131.402-1.813-.133a2.02 2.02 0 0 1-.759-1.646z"/><path fill="#F8D45C" d="M11.002 6.176 12 5.143l.999 1.033 1.144-.604q-.126.759-.287 1.513c-.266.522-1.342.638-1.856.63-.51.008-1.59-.108-1.856-.63a33 33 0 0 1-.287-1.513z"/><path fill="#F0F3FA" d="M7.286 7.474a2.04 2.04 0 0 1 1.32-1.903c-.069.129-.215.532-.215 1.106a1.27 1.27 0 0 0 .913 1.234c.407.129.553.206.553.412 0 .643-.647 1.105-.84 1.105s-1.731-.514-1.731-1.954"/></g><defs><clipPath id="a"><path fill="#fff" d="M0 0h24v24H0z"/></clipPath></defs></svg>
